web/ui/src/components/workflow/workflow-viewer/svgs/task-tool/view-cache.svg

<svg fill="none" height="24" viewBox="0 0 24 24" width="24" xmlns="http://www.w3.org/2000/svg"><g fill="#526579"><path clip-rule="evenodd" d="m2 14.5c0-.5523.44772-1 1-1h18c.5523 0 1 .4477 1 1v6.2c0 .9941-.8059 1.8-1.8 1.8h-16.4c-.99411 0-1.8-.8059-1.8-1.8zm2 1v5h16v-5z" fill-rule="evenodd"/><path d="m17.75 19c.6904 0 1.25-.5596 1.25-1.25 0-.6903-.5596-1.25-1.25-1.25-.6903 0-1.25.5597-1.25 1.25 0 .6904.5597 1.25 1.25 1.25z"/><g clip-rule="evenodd" fill-rule="evenodd"><path d="m6.26179 3.5c-.09614 0-.17868.0684-.19652.16287l-2.08264 11.02313-1.96523-.3713 2.08263-11.02313c.19633-1.03914 1.10423-1.79157 2.16176-1.79157h11.50081c1.0593 0 1.9682.75489 2.1626 1.79618l2.0578 11.02062-1.966.3671-2.0578-11.02061c-.0177-.09466-.1003-.16329-.1966-.16329z"/><path d="m5 17.75c0-.5523.44772-1 1-1h7c.5523 0 1 .4477 1 1s-.4477 1-1 1h-7c-.55228 0-1-.4477-1-1z"/></g></g></svg>

<svg width="24" height="24" viewBox="0 0 24 24" fill="none" xmlns="http://www.w3.org/2000/svg">
<path fill-rule="evenodd" clip-rule="evenodd" d="M2 14.5C2 13.9477 2.44772 13.5 3 13.5H21C21.5523 13.5 22 13.9477 22 14.5V20.7C22 21.6941 21.1941 22.5 20.2 22.5H3.8C2.80589 22.5 2 21.6941 2 20.7V14.5ZM4 15.5V20.5H20V15.5H4Z" fill="#526579"/>
<path d="M17.75 19C18.4404 19 19 18.4404 19 17.75C19 17.0597 18.4404 16.5 17.75 16.5C17.0597 16.5 16.5 17.0597 16.5 17.75C16.5 18.4404 17.0597 19 17.75 19Z" fill="#526579"/>
<path fill-rule="evenodd" clip-rule="evenodd" d="M6.26179 3.5C6.16565 3.5 6.08311 3.5684 6.06527 3.66287L3.98263 14.686L2.0174 14.3147L4.10003 3.29157C4.29636 2.25243 5.20426 1.5 6.26179 1.5H17.7626C18.8219 1.5 19.7308 2.25489 19.9252 3.29618L21.983 14.3168L20.017 14.6839L17.9592 3.66329C17.9415 3.56863 17.8589 3.5 17.7626 3.5H6.26179Z" fill="#526579"/>
<path fill-rule="evenodd" clip-rule="evenodd" d="M5 17.75C5 17.1977 5.44772 16.75 6 16.75H13C13.5523 16.75 14 17.1977 14 17.75C14 18.3023 13.5523 18.75 13 18.75H6C5.44772 18.75 5 18.3023 5 17.75Z" fill="#526579"/>
</svg>
